app/img/phone-icon.svg

<svg width="17" height="17" viewBox="0 0 17 17" fill="none" xmlns="http://www.w3.org/2000/svg">
<path d="M7.05359 10.0564C7.93356 10.8997 8.55688 11.4864 9.10686 11.743C9.54685 11.9997 9.98683 11.8164 10.2435 11.5597C10.5002 11.2297 10.7568 10.973 11.0501 10.6431C11.5635 10.0564 14.24 11.083 15.0467 11.2297C15.67 11.413 16 11.743 16 12.1463C16 12.6597 16 13.1363 16 13.5763C15.3034 15.0796 14.24 15.9229 12.6268 15.9962C10.3168 16.0696 7.6769 15.0796 4.74365 12.2197C1.9204 9.28643 0.930431 6.68317 1.00376 4.33657C1.00376 2.75995 1.88374 1.65998 3.38703 1C3.82701 1 4.377 1 4.81699 1C5.25698 1 5.62363 1.40332 5.69696 1.98997C5.95362 2.83328 7.01692 5.43654 6.39361 5.98652C6.13695 6.24318 5.77029 6.49984 5.51363 6.7565C5.25697 7.01316 5.07365 7.41648 5.33031 7.9298C5.62363 8.55312 6.13695 9.13977 7.05359 10.0564Z" stroke="#131413" stroke-width="1.4" stroke-miterlimit="10"/>
</svg>

<svg width="17" height="17" fill="none" xmlns="http://www.w3.org/2000/svg"><path d="M7.054 10.056c.88.844 1.503 1.43 2.053 1.687.44.257.88.073 1.136-.183.257-.33.514-.587.807-.917.513-.587 3.19.44 3.997.587.623.183.953.513.953.916v1.43c-.697 1.504-1.76 2.347-3.373 2.42-2.31.074-4.95-.916-7.883-3.776C1.92 9.286.93 6.683 1.004 4.337c0-1.577.88-2.677 2.383-3.337h1.43c.44 0 .807.403.88.99.257.843 1.32 3.447.697 3.997-.257.256-.624.513-.88.77-.257.256-.44.66-.184 1.173.294.623.807 1.21 1.724 2.126z" stroke="#131413" stroke-width="1.4" stroke-miterlimit="10"/></svg>
